src/icons/svgs/24/clock-rotate-left.svg

<svg width="24" height="24" viewBox="0 0 24 24" fill="none" xmlns="http://www.w3.org/2000/svg">
<path fill-rule="evenodd" clip-rule="evenodd" d="M6 4.005C7.72871 2.70191 9.83517 1.998 12 2C13.9776 2 15.9109 2.58639 17.5553 3.68502C19.1997 4.78365 20.4814 6.34519 21.2384 8.17221C21.9954 9.99922 22.1937 12.0097 21.8082 13.9494C21.4226 15.8891 20.4706 17.6709 19.0725 19.0696C17.6744 20.4683 15.893 21.421 13.9535 21.8073C12.0139 22.1937 10.0034 21.9962 8.17605 21.24C6.34872 20.4838 4.78664 19.2027 3.68733 17.5587C2.58801 15.9148 2.00082 13.9818 2 12.0042C2 11.7832 2.0878 11.5712 2.24408 11.4149C2.40036 11.2586 2.61232 11.1708 2.83333 11.1708C3.05435 11.1708 3.26631 11.2586 3.42259 11.4149C3.57887 11.5712 3.66667 11.7832 3.66667 12.0042C3.66714 13.8803 4.30099 15.7013 5.46556 17.1722C6.63013 18.6432 8.2572 19.6779 10.0832 20.1087C11.9092 20.5395 13.8272 20.3412 15.5264 19.546C17.2256 18.7507 18.6066 17.4051 19.4457 15.727C20.2847 14.0489 20.5326 12.1368 20.1493 10.3002C19.7659 8.46366 18.7738 6.81033 17.3335 5.60802C15.8933 4.40572 14.0893 3.72487 12.2138 3.67577C10.3383 3.62667 8.50118 4.2122 7 5.3375L8.5 7.33334L2.5 7.66667L4.5 2L6 4.005ZM11.4107 7.24408C11.567 7.0878 11.779 7 12 7C12.221 7 12.433 7.0878 12.5893 7.24408C12.7455 7.40036 12.8333 7.61232 12.8333 7.83333V11.655L15.9225 14.7442C16.0743 14.9013 16.1583 15.1118 16.1564 15.3303C16.1545 15.5488 16.0669 15.7578 15.9123 15.9123C15.7578 16.0669 15.5488 16.1545 15.3303 16.1564C15.1118 16.1583 14.9013 16.0743 14.7442 15.9225L11.4108 12.5892C11.2545 12.4329 11.1667 12.221 11.1667 12V7.83333C11.1667 7.61232 11.2545 7.40036 11.4107 7.24408Z" fill="black"/>
</svg>

<svg width="24" height="24" viewBox="0 0 24 24" xmlns="http://www.w3.org/2000/svg">
    <path fill-rule="evenodd" clip-rule="evenodd" d="M6 4.005A9.953 9.953 0 0 1 12 2 10 10 0 1 1 2 12.004a.833.833 0 0 1 1.667 0A8.329 8.329 0 1 0 7 5.338l1.5 1.995-6 .334L4.5 2 6 4.005Zm5.41 3.24a.833.833 0 0 1 1.423.588v3.822l3.09 3.09a.833.833 0 0 1-1.179 1.178l-3.333-3.334a.833.833 0 0 1-.244-.589V7.833c0-.22.088-.433.244-.589Z"/>
</svg>
